icons/circle/48/kdesnake.svg

<svg xmlns="http://www.w3.org/2000/svg" viewBox="0 0 48 48">
 <defs>
  <linearGradient id="linearGradient3845" y1="47" x2="0" y2="1" gradientUnits="userSpaceOnUse">
   <stop style="stop-color:#f0e8cc;stop-opacity:1"/>
   <stop offset="1" style="stop-color:#f5efdb;stop-opacity:1"/>
  </linearGradient>
 </defs>
 <g>
  <path d="m 36.31 5 c 5.859 4.062 9.688 10.831 9.688 18.5 c 0 12.426 -10.07 22.5 -22.5 22.5 c -7.669 0 -14.438 -3.828 -18.5 -9.688 c 1.037 1.822 2.306 3.499 3.781 4.969 c 4.085 3.712 9.514 5.969 15.469 5.969 c 12.703 0 23 -10.298 23 -23 c 0 -5.954 -2.256 -11.384 -5.969 -15.469 c -1.469 -1.475 -3.147 -2.744 -4.969 -3.781 z m 4.969 3.781 c 3.854 4.113 6.219 9.637 6.219 15.719 c 0 12.703 -10.297 23 -23 23 c -6.081 0 -11.606 -2.364 -15.719 -6.219 c 4.16 4.144 9.883 6.719 16.219 6.719 c 12.703 0 23 -10.298 23 -23 c 0 -6.335 -2.575 -12.06 -6.719 -16.219 z" style="opacity:0.05"/>
  <path d="m 41.28 8.781 c 3.712 4.085 5.969 9.514 5.969 15.469 c 0 12.703 -10.297 23 -23 23 c -5.954 0 -11.384 -2.256 -15.469 -5.969 c 4.113 3.854 9.637 6.219 15.719 6.219 c 12.703 0 23 -10.298 23 -23 c 0 -6.081 -2.364 -11.606 -6.219 -15.719 z" style="opacity:0.1"/>
  <path d="m 31.25 2.375 c 8.615 3.154 14.75 11.417 14.75 21.13 c 0 12.426 -10.07 22.5 -22.5 22.5 c -9.708 0 -17.971 -6.135 -21.12 -14.75 a 23 23 0 0 0 44.875 -7 a 23 23 0 0 0 -16 -21.875 z" style="opacity:0.2"/>
 </g>
 <g>
  <path d="m 24 1 c 12.703 0 23 10.297 23 23 c 0 12.703 -10.297 23 -23 23 -12.703 0 -23 -10.297 -23 -23 0 -12.703 10.297 -23 23 -23 z" style="fill:url(#linearGradient3845);fill-opacity:1"/>
 </g>
 <g>
  <path d="m 40.03 7.531 c 3.712 4.084 5.969 9.514 5.969 15.469 0 12.703 -10.297 23 -23 23 c -5.954 0 -11.384 -2.256 -15.469 -5.969 4.178 4.291 10.01 6.969 16.469 6.969 c 12.703 0 23 -10.298 23 -23 0 -6.462 -2.677 -12.291 -6.969 -16.469 z" style="opacity:0.1"/>
 </g>
 <g transform="translate(0.0011881,-0.00332408)">
  <g>
   <g transform="translate(1,1)">
    <g style="opacity:0.1">
     <!-- color: #ec8430 -->
     <g>
      <path d="M 12.06,20.875 C 11.552,16.961 14.251,12 18.525,12 c 12.457,0 1.441,15.05 2.465,16.12 1,1 2.785,-0.625 3.977,-2.441 1.02,-1.59 1.855,-3.277 3.727,-2.359 2.086,1.027 2.098,3 3.129,5.145 1.031,2.141 2.082,3.316 3.129,4.113 3.578,3.895 -2.965,4.609 -4.922,1.414 -2.035,-2.855 -1.035,-4.867 -4.902,-0.434 -6.129,7.652 -12.12,-4.438 -13.06,-12.684 m 0.004,0" style="fill:#000;fill-opacity:1;stroke:none;fill-rule:nonzero"/>
     </g>
    </g>
   </g>
  </g>
 </g>
 <g transform="translate(0.0011881,-0.00332408)">
  <g>
   <!-- color: #ec8430 -->
   <g>
    <path d="M 12.06,20.875 C 11.552,16.961 14.251,12 18.525,12 c 12.457,0 1.441,15.05 2.465,16.12 1,1 2.785,-0.625 3.977,-2.441 1.02,-1.59 1.855,-3.277 3.727,-2.359 2.086,1.027 2.098,3 3.129,5.145 1.031,2.141 2.082,3.316 3.129,4.113 3.578,3.895 -2.965,4.609 -4.922,1.414 -2.035,-2.855 -1.035,-4.867 -4.902,-0.434 -6.129,7.652 -12.12,-4.438 -13.06,-12.684 m 0.004,0" style="fill:#b9db45;fill-opacity:1;stroke:none;fill-rule:nonzero"/>
   </g>
  </g>
 </g>
</svg>

<svg xmlns="http://www.w3.org/2000/svg" viewBox="0 0 48 48">
  <defs>
    <linearGradient id="a" y1="47" x2="0" y2="1" gradientUnits="userSpaceOnUse">
      <stop stop-color="#f0e8cc"/>
      <stop offset="1" stop-color="#f5efdb"/>
    </linearGradient>
  </defs>
  <path d="M36.31 5c5.859 4.062 9.688 10.831 9.688 18.5 0 12.426-10.07 22.5-22.5 22.5-7.669 0-14.438-3.828-18.5-9.688a23.24 23.24 0 0 0 3.781 4.969 22.923 22.923 0 0 0 15.469 5.969c12.703 0 23-10.298 23-23a22.92 22.92 0 0 0-5.969-15.469A23.216 23.216 0 0 0 36.31 5zm4.969 3.781A22.911 22.911 0 0 1 47.498 24.5c0 12.703-10.297 23-23 23a22.909 22.909 0 0 1-15.719-6.219C12.939 45.425 18.662 48 24.998 48c12.703 0 23-10.298 23-23 0-6.335-2.575-12.06-6.719-16.219z" opacity=".05"/>
  <path d="M41.28 8.781a22.923 22.923 0 0 1 5.969 15.469c0 12.703-10.297 23-23 23A22.92 22.92 0 0 1 8.78 41.281 22.911 22.911 0 0 0 24.499 47.5c12.703 0 23-10.298 23-23A22.909 22.909 0 0 0 41.28 8.781z" opacity=".1"/>
  <path d="M31.25 2.375C39.865 5.529 46 13.792 46 23.505c0 12.426-10.07 22.5-22.5 22.5-9.708 0-17.971-6.135-21.12-14.75a23 23 0 0 0 44.875-7 23 23 0 0 0-16-21.875z" opacity=".2"/>
  <path d="M24 1c12.703 0 23 10.297 23 23S36.703 47 24 47 1 36.703 1 24 11.297 1 24 1z" fill="url(#a)"/>
  <path d="M40.03 7.531A22.922 22.922 0 0 1 45.999 23c0 12.703-10.297 23-23 23A22.92 22.92 0 0 1 7.53 40.031C11.708 44.322 17.54 47 23.999 47c12.703 0 23-10.298 23-23 0-6.462-2.677-12.291-6.969-16.469z" opacity=".1"/>
  <g>
    <path d="M13.061 21.872c-.508-3.914 2.191-8.875 6.465-8.875 12.457 0 1.441 15.05 2.465 16.12 1 1 2.785-.625 3.977-2.441 1.02-1.59 1.855-3.277 3.727-2.36 2.086 1.028 2.098 3 3.13 5.146 1.03 2.14 2.081 3.316 3.128 4.113 3.578 3.895-2.965 4.609-4.922 1.414-2.035-2.855-1.035-4.867-4.902-.434C20 42.207 14.01 30.117 13.07 21.87m.004 0" opacity=".1"/>
  </g>
  <g>
    <path d="M12.061 20.872c-.508-3.914 2.191-8.875 6.465-8.875 12.457 0 1.441 15.05 2.465 16.12 1 1 2.785-.625 3.977-2.441 1.02-1.59 1.855-3.277 3.727-2.36 2.086 1.028 2.098 3 3.13 5.146 1.03 2.14 2.081 3.316 3.128 4.113 3.578 3.895-2.965 4.609-4.922 1.414-2.035-2.855-1.035-4.867-4.902-.434C19 41.207 13.01 29.117 12.07 20.87m.004 0" fill="#b9db45"/>
  </g>
</svg>
